X:250
T:Quaker
M:4/4
L:1/8
K:G
B2 B2 AG FE | E2 D2 D2 DE | F2 F2 FD EF | A2 G2 G4 | 
d2 ed c2 B2 | A2 E2 E2 c2 | BA GF E2 F2 | G4 G4 :| 
K:D
A2 A2 B2 B2 | AG FG A4 | GF EF G2 G2 | FE DE F4 | 
A2 A2 B2 B2 | AG FG A4 | GF EF GA Bc |[1 d8 :|[2 d4=c4 |] 

